svg/fluentui-system-icons/ic_fluent_text_add_20_regular.svg

<svg width="20" height="20" viewBox="0 0 20 20" fill="none" xmlns="http://www.w3.org/2000/svg">
<path d="M3 3.5C3 3.22386 3.22386 3 3.5 3H13.5C13.7761 3 14 3.22386 14 3.5V5.5C14 5.77614 13.7761 6 13.5 6C13.2239 6 13 5.77614 13 5.5V4H9V16H9.20703C9.30564 16.3486 9.43777 16.6832 9.59971 17H6.5C6.22386 17 6 16.7761 6 16.5C6 16.2239 6.22386 16 6.5 16H8V4H4V5.5C4 5.77614 3.77614 6 3.5 6C3.22386 6 3 5.77614 3 5.5V3.5ZM19 14.5C19 16.9853 16.9853 19 14.5 19C12.0147 19 10 16.9853 10 14.5C10 12.0147 12.0147 10 14.5 10C16.9853 10 19 12.0147 19 14.5ZM15 12.5C15 12.2239 14.7761 12 14.5 12C14.2239 12 14 12.2239 14 12.5V14H12.5C12.2239 14 12 14.2239 12 14.5C12 14.7761 12.2239 15 12.5 15H14V16.5C14 16.7761 14.2239 17 14.5 17C14.7761 17 15 16.7761 15 16.5V15H16.5C16.7761 15 17 14.7761 17 14.5C17 14.2239 16.7761 14 16.5 14H15V12.5Z" fill="#212121"/>
</svg>

<svg xmlns="http://www.w3.org/2000/svg" width="20" height="20"><path d="M3 3.5a.5.5 0 0 1 .5-.5h10a.5.5 0 0 1 .5.5v2a.5.5 0 0 1-1 0V4H9v12h.207c.099.349.23.683.393 1H6.5a.5.5 0 0 1 0-1H8V4H4v1.5a.5.5 0 0 1-1 0v-2Zm16 11a4.5 4.5 0 1 1-9 0 4.5 4.5 0 0 1 9 0Zm-4-2a.5.5 0 0 0-1 0V14h-1.5a.5.5 0 0 0 0 1H14v1.5a.5.5 0 0 0 1 0V15h1.5a.5.5 0 0 0 0-1H15v-1.5Z"/></svg>
